packages/ui/public/icons/download.svg

<svg width="24" height="25" viewBox="0 0 24 25" fill="none" xmlns="http://www.w3.org/2000/svg">
<path opacity="0.4" d="M21 15.5V16.7C21 18.3802 21 19.2202 20.673 19.862C20.3854 20.4265 19.9265 20.8854 19.362 21.173C18.7202 21.5 17.8802 21.5 16.2 21.5H7.8C6.11984 21.5 5.27976 21.5 4.63803 21.173C4.07354 20.8854 3.6146 20.4265 3.32698 19.862C3 19.2202 3 18.3802 3 16.7V15.5" stroke="white" stroke-width="2" stroke-linecap="round" stroke-linejoin="round"/>
<path d="M12 15.5V3.5M17 10.5L12 15.5L17 10.5ZM12 15.5L7 10.5L12 15.5Z" stroke="white" stroke-width="2" stroke-linecap="round" stroke-linejoin="round"/>
</svg>

<svg width="24" height="25" fill="none" xmlns="http://www.w3.org/2000/svg"><path opacity=".4" d="M21 15.5v1.2c0 1.68 0 2.52-.327 3.162a3 3 0 0 1-1.311 1.311c-.642.327-1.482.327-3.162.327H7.8c-1.68 0-2.52 0-3.162-.327a3 3 0 0 1-1.311-1.311C3 19.22 3 18.38 3 16.7v-1.2" stroke="#fff" stroke-width="2" stroke-linecap="round" stroke-linejoin="round"/><path d="M12 15.5v-12m5 7-5 5 5-5Zm-5 5-5-5 5 5Z" stroke="#fff" stroke-width="2" stroke-linecap="round" stroke-linejoin="round"/></svg>
